svg/u23f0.svg

<svg viewBox="0 0 128 128" xmlns="http://www.w3.org/2000/svg">
  <g>
    <g>
      <path d="M32.04,123.67L32.04,123.67c-1.39-0.7-2.06-2.32-1.55-3.8l4.02-11.77l7.87,5.31l-6.36,9.24 C35.14,123.93,33.44,124.37,32.04,123.67z" fill="#82AEC0"/>
      <path d="M95.36,123.67L95.36,123.67c1.39-0.7,2.06-2.32,1.55-3.8l-4.07-11.91l-8.29,4.77l6.83,9.92 C92.26,123.93,93.96,124.37,95.36,123.67z" fill="#82AEC0"/>
      <path d="M34.51,108.1l-2.05,6c1.27-0.73,2.93-0.66,4.25-0.01c1.32,0.65,2.33,1.79,3.1,3.05l2.33-3.38 C42.14,113.62,34.51,108.1,34.51,108.1z" fill="#2F7889"/>
      <path d="M92.87,107.95l2.22,6.6c-1.27-0.73-2.79-0.71-4.12-0.06c-1.32,0.65-2.33,1.79-3.1,3.05l-3.05-4.43 L92.87,107.95z" fill="#2F7889"/>
    </g>
    <circle cx="63.7" cy="73.93" r="42.01" fill="#FFEFA1"/>
    <circle cx="63.7" cy="70.22" r="49.36" fill="#CC2929"/>
    <circle cx="63.7" cy="72.7" r="46.4" fill="#FF4638"/>
    <g>
      <circle cx="63.7" cy="72.7" r="40.03" fill="#FAFAFA"/>
      <circle cx="64" cy="72.7" r="4.45" fill="#563428"/>
      <g>
        <g>
          <path d="M63.7,42.57L63.7,42.57c-0.81,0-1.47-0.66-1.47-1.47v-4.4c0-0.81,0.66-1.47,1.47-1.47h0 c0.81,0,1.47,0.66,1.47,1.47v4.4C65.17,41.91,64.51,42.57,63.7,42.57z" fill="#B2947C"/>
          <path d="M63.7,110.16L63.7,110.16c-0.81,0-1.47-0.66-1.47-1.47v-4.4c0-0.81,0.66-1.47,1.47-1.47h0 c0.81,0,1.47,0.66,1.47,1.47v4.4C65.17,109.5,64.51,110.16,63.7,110.16z" fill="#B2947C"/>
        </g>
        <g>
          <path d="M99.69,74.16h-4.4c-0.81,0-1.47-0.66-1.47-1.47l0,0c0-0.81,0.66-1.47,1.47-1.47h4.4 c0.81,0,1.47,0.66,1.47,1.47l0,0C101.16,73.51,100.5,74.16,99.69,74.16z" fill="#B2947C"/>
          <path d="M32.11,74.16h-4.4c-0.81,0-1.47-0.66-1.47-1.47l0,0c0-0.81,0.66-1.47,1.47-1.47h4.4 c0.81,0,1.47,0.66,1.47,1.47l0,0C33.58,73.51,32.92,74.16,32.11,74.16z" fill="#B2947C"/>
        </g>
        <g>
          <path d="M63.7,42.57L63.7,42.57c-0.81,0-1.47-0.66-1.47-1.47v-4.4c0-0.81,0.66-1.47,1.47-1.47h0 c0.81,0,1.47,0.66,1.47,1.47v4.4C65.17,41.91,64.51,42.57,63.7,42.57z" fill="#B2947C"/>
          <path d="M63.7,110.16L63.7,110.16c-0.81,0-1.47-0.66-1.47-1.47v-4.4c0-0.81,0.66-1.47,1.47-1.47h0 c0.81,0,1.47,0.66,1.47,1.47v4.4C65.17,109.5,64.51,110.16,63.7,110.16z" fill="#B2947C"/>
        </g>
        <g>
          <path d="M46.63,46.07l-2.2-3.81c-0.41-0.7-0.17-1.6,0.54-2.01l0,0c0.7-0.41,1.6-0.17,2.01,0.54 l2.2,3.81c0.41,0.7,0.17,1.6-0.54,2.01l0,0C47.94,47.01,47.04,46.77,46.63,46.07z" fill="#B2947C"/>
          <path d="M80.43,104.6l-2.2-3.81c-0.41-0.7-0.16-1.6,0.54-2.01l0,0c0.7-0.41,1.6-0.16,2.01,0.54 l2.2,3.81c0.41,0.7,0.16,1.6-0.54,2.01l0,0C81.73,105.54,80.83,105.3,80.43,104.6z" fill="#B2947C"/>
        </g>
        <g>
          <path d="M46.63,46.07l-2.2-3.81c-0.41-0.7-0.17-1.6,0.54-2.01l0,0c0.7-0.41,1.6-0.17,2.01,0.54 l2.2,3.81c0.41,0.7,0.17,1.6-0.54,2.01l0,0C47.94,47.01,47.04,46.77,46.63,46.07z" fill="#B2947C"/>
          <path d="M80.43,104.6l-2.2-3.81c-0.41-0.7-0.16-1.6,0.54-2.01l0,0c0.7-0.41,1.6-0.16,2.01,0.54 l2.2,3.81c0.41,0.7,0.16,1.6-0.54,2.01l0,0C81.73,105.54,80.83,105.3,80.43,104.6z" fill="#B2947C"/>
        </g>
        <g>
          <path d="M35.61,58.17l-3.81-2.2c-0.7-0.41-0.94-1.3-0.54-2.01l0,0c0.41-0.7,1.3-0.94,2.01-0.54 l3.81,2.2c0.7,0.41,0.94,1.3,0.54,2.01l0,0C37.21,58.34,36.31,58.58,35.61,58.17z" fill="#B2947C"/>
          <path d="M94.14,91.96l-3.81-2.2c-0.7-0.41-0.94-1.3-0.54-2.01l0,0c0.41-0.7,1.3-0.94,2.01-0.54 l3.81,2.2c0.7,0.41,0.94,1.3,0.54,2.01l0,0C95.74,92.13,94.84,92.37,94.14,91.96z" fill="#B2947C"/>
        </g>
        <g>
          <path d="M78.76,46.61L78.76,46.61c-0.7-0.41-0.94-1.3-0.54-2.01l2.2-3.81c0.41-0.7,1.3-0.94,2.01-0.54 l0,0c0.7,0.41,0.94,1.3,0.54,2.01l-2.2,3.81C80.36,46.77,79.47,47.01,78.76,46.61z" fill="#B2947C"/>
          <path d="M44.97,105.14L44.97,105.14c-0.7-0.41-0.94-1.3-0.54-2.01l2.2-3.81 c0.41-0.7,1.3-0.94,2.01-0.54l0,0c0.7,0.41,0.94,1.3,0.54,2.01l-2.2,3.81C46.57,105.3,45.67,105.54,44.97,105.14z" fill="#B2947C"/>
        </g>
        <g>
          <path d="M89.79,57.63L89.79,57.63c-0.41-0.7-0.17-1.6,0.54-2.01l3.81-2.2c0.7-0.41,1.6-0.16,2.01,0.54 l0,0c0.41,0.7,0.16,1.6-0.54,2.01l-3.81,2.2C91.09,58.58,90.19,58.34,89.79,57.63z" fill="#B2947C"/>
          <path d="M31.26,91.43L31.26,91.43c-0.41-0.7-0.16-1.6,0.54-2.01l3.81-2.2c0.7-0.41,1.6-0.16,2.01,0.54 l0,0c0.41,0.7,0.16,1.6-0.54,2.01l-3.81,2.2C32.56,92.37,31.66,92.13,31.26,91.43z" fill="#B2947C"/>
        </g>
      </g>
      <line fill="none" stroke="#563428" stroke-width="5" stroke-linecap="round" stroke-miterlimit="10" x1="47.49" x2="63.7" y1="63.49" y2="72.7"/>
      <line fill="none" stroke="#563428" stroke-width="3.5" stroke-linecap="round" stroke-miterlimit="10" x1="86.87" x2="64.44" y1="59.41" y2="72.7"/>
    </g>
    <path d="M40.76,30.57" fill="none" stroke="#82AEC0" stroke-width="4.9418" stroke-miterlimit="10"/>
    <path d="M25.15,4" fill="none" stroke="#82AEC0" stroke-width="4.9418" stroke-miterlimit="10"/>
    <g>
      <polygon points="91.99,32.49 87.85,29.78 101.94,4.82 106.24,7.25 " fill="#82AEC0"/>
      <path d="M111.17,35.21c1.23,0.36,2.55-0.32,2.93-1.54c3.24-10.35-0.96-21.61-11.12-26.84 c-10.23-5.27-21.34-1.81-27.81,7.02c-0.73,0.99-0.56,2.38,0.36,3.19c2.09,1.85,6.73,5.33,15.98,10.01 C101.28,31.99,107.98,34.27,111.17,35.21z" fill="#CC2929"/>
      <path d="M105.85,10.3c0,0,2.61-3.33-1.18-5.44c-2.95-1.64-4.82,1.95-4.82,1.95 C99.2,8,105.4,11.12,105.85,10.3z" fill="#82AEC0"/>
    </g>
    <g>
      <polygon points="35.63,32.52 21.36,7.25 25.67,4.82 39.53,29.38 " fill="#82AEC0"/>
      <path d="M16.83,35.21c-1.23,0.36-2.55-0.32-2.93-1.54c-3.24-10.35,0.96-21.61,11.12-26.84 c10.23-5.27,21.34-1.81,27.81,7.02c0.73,0.99,0.56,2.38-0.36,3.19c-2.09,1.85-6.73,5.33-15.98,10.01 C26.72,31.99,20.02,34.27,16.83,35.21z" fill="#CC2929"/>
      <path d="M22.15,10.3c0,0-2.61-3.33,1.18-5.44c2.95-1.64,4.82,1.95,4.82,1.95 C28.8,8,22.6,11.12,22.15,10.3z" fill="#82AEC0"/>
    </g>
    <line fill="none" stroke="#82AEC0" stroke-width="3.7064" stroke-miterlimit="10" x1="63.7" x2="63.7" y1="23.22" y2="9.5"/>
    <path d="M63.76,14.38c-3.92,0-7.85-1.5-7.85-1.5V9.91c0,0,3.65-1.63,8.04-1.63s7.65,1.63,7.65,1.63l0,2.97 C71.61,12.89,67.69,14.38,63.76,14.38z" fill="#82AEC0"/>
    <path d="M56.9,9.79c-0.43,0.16-0.47,0.75-0.07,0.98c0.58,0.33,1.27,0.67,1.51,0.63 c3.3-0.51,8.09-0.26,11.4,0.24c0.23,0.04,0.89-0.52,1.36-0.94c0.26-0.24,0.2-0.65-0.12-0.8c-1.04-0.47-3.39-1.31-7.03-1.31 C60.59,8.59,58.16,9.3,56.9,9.79z" fill="#94D1E0"/>
    <path d="M95.06,7.9c0.31,1.06-0.83,1.93-1.75,2.54c-2.31,1.54-4.19,3.72-5.4,6.22 c-0.58,1.2-1.23,2.67-2.56,2.86c-0.53,0.07-1.05-0.09-1.55-0.27c-0.77-0.28-1.52-0.6-2.25-0.97c-0.87-0.44-1.76-1-2.16-1.89 c-0.52-1.17-0.03-2.55,0.67-3.63c1.67-2.55,4.39-4.13,7.19-5.17C88.94,6.96,94.22,5.03,95.06,7.9z" fill="#FF4638"/>
    <path d="M26.13,16.33c0.65,1.35,1.38,2.66,2.19,3.92c0.99,1.54,2.14,3.26,1.72,5.04 c-0.49,2.04-2.75,3.02-4.74,3.7c-1.02,0.35-2.03,0.7-3.05,1.05c-0.54,0.19-1.11,0.38-1.68,0.35c-0.9-0.04-1.71-0.61-2.22-1.34 c-0.52-0.73-0.78-1.61-0.98-2.48c-0.75-3.35-0.6-6.9,0.43-10.18c0.6-1.88,1.54-3.86,3.67-4.01C24.06,12.2,25.16,14.31,26.13,16.33 z" fill="#FF4638"/>
  </g>
</svg>

<svg viewBox="0 0 128 128" xmlns="http://www.w3.org/2000/svg">
  <defs/>
  <path d="M32.04,123.67 L32.04,123.67 C30.65,122.97 29.98,121.35 30.49,119.87 L34.51,108.1 L42.38,113.41 L36.02,122.65 C35.14,123.93 33.44,124.37 32.04,123.67 Z" fill="#82AEC0"/>
  <path d="M95.36,123.67 L95.36,123.67 C96.75,122.97 97.42,121.35 96.91,119.87 L92.84,107.96 L84.55,112.73 L91.38,122.65 C92.26,123.93 93.96,124.37 95.36,123.67 Z" fill="#82AEC0"/>
  <path d="M34.51,108.1 L32.46,114.1 C33.73,113.37 35.39,113.44 36.71,114.09 C38.03,114.74 39.04,115.88 39.81,117.14 L42.14,113.76 C42.14,113.62 34.51,108.1 34.51,108.1 Z" fill="#2F7889"/>
  <path d="M92.87,107.95 L95.09,114.55 C93.82,113.82 92.3,113.84 90.97,114.49 C89.65,115.14 88.64,116.28 87.87,117.54 L84.82,113.11 L92.87,107.95 Z" fill="#2F7889"/>
  <path d="M105.71,73.93 A42.01 42.01 0 1 1 21.69,73.93 A42.01 42.01 0 1 1 105.71,73.93 Z" fill="#FFEFA1"/>
  <path d="M113.06,70.22 A49.36 49.36 0 1 1 14.34,70.22 A49.36 49.36 0 1 1 113.06,70.22 Z" fill="#CC2929"/>
  <path d="M110.1,72.7 A46.4 46.4 0 1 1 17.3,72.7 A46.4 46.4 0 1 1 110.1,72.7 Z" fill="#FF4638"/>
  <path d="M103.73,72.7 A40.03 40.03 0 1 1 23.67,72.7 A40.03 40.03 0 1 1 103.73,72.7 Z" fill="#FAFAFA"/>
  <path d="M68.45,72.7 A4.45 4.45 0 1 1 59.55,72.7 A4.45 4.45 0 1 1 68.45,72.7 Z" fill="#563428"/>
  <path d="M63.7,42.57 L63.7,42.57 C62.89,42.57 62.23,41.91 62.23,41.1 L62.23,36.7 C62.23,35.89 62.89,35.23 63.7,35.23 L63.7,35.23 C64.51,35.23 65.17,35.89 65.17,36.7 L65.17,41.1 C65.17,41.91 64.51,42.57 63.7,42.57 Z" fill="#B2947C"/>
  <path d="M63.7,110.16 L63.7,110.16 C62.89,110.16 62.23,109.5 62.23,108.69 L62.23,104.29 C62.23,103.48 62.89,102.82 63.7,102.82 L63.7,102.82 C64.51,102.82 65.17,103.48 65.17,104.29 L65.17,108.69 C65.17,109.5 64.51,110.16 63.7,110.16 Z" fill="#B2947C"/>
  <path d="M99.69,74.16 L95.29,74.16 C94.48,74.16 93.82,73.5 93.82,72.69 L93.82,72.69 C93.82,71.88 94.48,71.22 95.29,71.22 L99.69,71.22 C100.5,71.22 101.16,71.88 101.16,72.69 L101.16,72.69 C101.16,73.51 100.5,74.16 99.69,74.16 Z" fill="#B2947C"/>
  <path d="M32.11,74.16 L27.71,74.16 C26.9,74.16 26.24,73.5 26.24,72.69 L26.24,72.69 C26.24,71.88 26.9,71.22 27.71,71.22 L32.11,71.22 C32.92,71.22 33.58,71.88 33.58,72.69 L33.58,72.69 C33.58,73.51 32.92,74.16 32.11,74.16 Z" fill="#B2947C"/>
  <path d="M63.7,42.57 L63.7,42.57 C62.89,42.57 62.23,41.91 62.23,41.1 L62.23,36.7 C62.23,35.89 62.89,35.23 63.7,35.23 L63.7,35.23 C64.51,35.23 65.17,35.89 65.17,36.7 L65.17,41.1 C65.17,41.91 64.51,42.57 63.7,42.57 Z" fill="#B2947C"/>
  <path d="M63.7,110.16 L63.7,110.16 C62.89,110.16 62.23,109.5 62.23,108.69 L62.23,104.29 C62.23,103.48 62.89,102.82 63.7,102.82 L63.7,102.82 C64.51,102.82 65.17,103.48 65.17,104.29 L65.17,108.69 C65.17,109.5 64.51,110.16 63.7,110.16 Z" fill="#B2947C"/>
  <path d="M46.63,46.07 L44.43,42.26 C44.02,41.56 44.26,40.66 44.97,40.25 L44.97,40.25 C45.67,39.84 46.57,40.08 46.98,40.79 L49.18,44.6 C49.59,45.3 49.35,46.2 48.64,46.61 L48.64,46.61 C47.94,47.01 47.04,46.77 46.63,46.07 Z" fill="#B2947C"/>
  <path d="M80.43,104.6 L78.23,100.79 C77.82,100.09 78.07,99.19 78.77,98.78 L78.77,98.78 C79.47,98.37 80.37,98.62 80.78,99.32 L82.98,103.13 C83.39,103.83 83.14,104.73 82.44,105.14 L82.44,105.14 C81.73,105.54 80.83,105.3 80.43,104.6 Z" fill="#B2947C"/>
  <path d="M46.63,46.07 L44.43,42.26 C44.02,41.56 44.26,40.66 44.97,40.25 L44.97,40.25 C45.67,39.84 46.57,40.08 46.98,40.79 L49.18,44.6 C49.59,45.3 49.35,46.2 48.64,46.61 L48.64,46.61 C47.94,47.01 47.04,46.77 46.63,46.07 Z" fill="#B2947C"/>
  <path d="M80.43,104.6 L78.23,100.79 C77.82,100.09 78.07,99.19 78.77,98.78 L78.77,98.78 C79.47,98.37 80.37,98.62 80.78,99.32 L82.98,103.13 C83.39,103.83 83.14,104.73 82.44,105.14 L82.44,105.14 C81.73,105.54 80.83,105.3 80.43,104.6 Z" fill="#B2947C"/>
  <path d="M35.61,58.17 L31.8,55.97 C31.1,55.56 30.86,54.67 31.26,53.96 L31.26,53.96 C31.67,53.26 32.56,53.02 33.27,53.42 L37.08,55.62 C37.78,56.03 38.02,56.92 37.62,57.63 L37.62,57.63 C37.21,58.34 36.31,58.58 35.61,58.17 Z" fill="#B2947C"/>
  <path d="M94.14,91.96 L90.33,89.76 C89.63,89.35 89.39,88.46 89.79,87.75 L89.79,87.75 C90.2,87.05 91.09,86.81 91.8,87.21 L95.61,89.41 C96.31,89.82 96.55,90.71 96.15,91.42 L96.15,91.42 C95.74,92.13 94.84,92.37 94.14,91.96 Z" fill="#B2947C"/>
  <path d="M78.76,46.61 L78.76,46.61 C78.06,46.2 77.82,45.31 78.22,44.6 L80.42,40.79 C80.83,40.09 81.72,39.85 82.43,40.25 L82.43,40.25 C83.13,40.66 83.37,41.55 82.97,42.26 L80.77,46.07 C80.36,46.77 79.47,47.01 78.76,46.61 Z" fill="#B2947C"/>
  <path d="M44.97,105.14 L44.97,105.14 C44.27,104.73 44.03,103.84 44.43,103.13 L46.63,99.32 C47.04,98.62 47.93,98.38 48.64,98.78 L48.64,98.78 C49.34,99.19 49.58,100.08 49.18,100.79 L46.98,104.6 C46.57,105.3 45.67,105.54 44.97,105.14 Z" fill="#B2947C"/>
  <path d="M89.79,57.63 L89.79,57.63 C89.38,56.93 89.62,56.03 90.33,55.62 L94.14,53.42 C94.84,53.01 95.74,53.26 96.15,53.96 L96.15,53.96 C96.56,54.66 96.31,55.56 95.61,55.97 L91.8,58.17 C91.09,58.58 90.19,58.34 89.79,57.63 Z" fill="#B2947C"/>
  <path d="M31.26,91.43 L31.26,91.43 C30.85,90.73 31.1,89.83 31.8,89.42 L35.61,87.22 C36.31,86.81 37.21,87.06 37.62,87.76 L37.62,87.76 C38.03,88.46 37.78,89.36 37.08,89.77 L33.27,91.97 C32.56,92.37 31.66,92.13 31.26,91.43 Z" fill="#B2947C"/>
  <path d="M48.725,61.316 L64.935,70.526 Q65.835,71.038 66.11,72.036 Q66.385,73.035 65.874,73.935 Q65.362,74.835 64.364,75.11 Q63.365,75.385 62.465,74.874 L46.255,65.664 Q45.355,65.152 45.08,64.154 Q44.805,63.155 45.316,62.255 Q45.828,61.355 46.826,61.08 Q47.825,60.805 48.725,61.316 Z" fill="#563428"/>
  <path d="M87.762,60.916 L65.332,74.206 Q63.826,75.098 62.934,73.592 Q62.488,72.839 62.642,72.24 Q62.795,71.64 63.548,71.194 L85.978,57.904 Q86.731,57.458 87.33,57.612 Q87.93,57.765 88.376,58.518 Q89.268,60.024 87.762,60.916 Z" fill="#563428"/>
  <path d="M91.99,32.49 L87.85,29.78 L101.94,4.82 L106.24,7.25 Z" fill="#82AEC0"/>
  <path d="M111.17,35.21 C112.4,35.57 113.72,34.89 114.1,33.67 C117.34,23.32 113.14,12.06 102.98,6.83 C92.75,1.56 81.64,5.02 75.17,13.85 C74.44,14.84 74.61,16.23 75.53,17.04 C77.62,18.89 82.26,22.37 91.51,27.05 C101.28,31.99 107.98,34.27 111.17,35.21 Z" fill="#CC2929"/>
  <path d="M105.85,10.3 C105.85,10.3 108.46,6.97 104.67,4.86 C101.72,3.22 99.85,6.81 99.85,6.81 C99.2,8 105.4,11.12 105.85,10.3 Z" fill="#82AEC0"/>
  <path d="M35.63,32.52 L21.36,7.25 L25.67,4.82 L39.53,29.38 Z" fill="#82AEC0"/>
  <path d="M16.83,35.21 C15.6,35.57 14.28,34.89 13.9,33.67 C10.66,23.32 14.86,12.06 25.02,6.83 C35.25,1.56 46.36,5.02 52.83,13.85 C53.56,14.84 53.39,16.23 52.47,17.04 C50.38,18.89 45.74,22.37 36.49,27.05 C26.72,31.99 20.02,34.27 16.83,35.21 Z" fill="#CC2929"/>
  <path d="M22.15,10.3 C22.15,10.3 19.54,6.97 23.33,4.86 C26.28,3.22 28.15,6.81 28.15,6.81 C28.8,8 22.6,11.12 22.15,10.3 Z" fill="#82AEC0"/>
  <path d="M61.847,23.22 L61.847,9.5 L65.553,9.5 L65.553,23.22 L61.847,23.22 Z" fill="#82AEC0"/>
  <path d="M63.76,14.38 C59.84,14.38 55.91,12.88 55.91,12.88 L55.91,9.91 C55.91,9.91 59.56,8.28 63.95,8.28 C68.34,8.28 71.6,9.91 71.6,9.91 L71.6,12.88 C71.61,12.89 67.69,14.38 63.76,14.38 Z" fill="#82AEC0"/>
  <path d="M56.9,9.79 C56.47,9.95 56.43,10.54 56.83,10.77 C57.41,11.1 58.1,11.44 58.34,11.4 C61.64,10.89 66.43,11.14 69.74,11.64 C69.97,11.68 70.63,11.12 71.1,10.7 C71.36,10.46 71.3,10.05 70.98,9.9 C69.94,9.43 67.59,8.59 63.95,8.59 C60.59,8.59 58.16,9.3 56.9,9.79 Z" fill="#94D1E0"/>
  <path d="M95.06,7.9 C95.37,8.96 94.23,9.83 93.31,10.44 C91,11.98 89.12,14.16 87.91,16.66 C87.33,17.86 86.68,19.33 85.35,19.52 C84.82,19.59 84.3,19.43 83.8,19.25 C83.03,18.97 82.28,18.65 81.55,18.28 C80.68,17.84 79.79,17.28 79.39,16.39 C78.87,15.22 79.36,13.84 80.06,12.76 C81.73,10.21 84.45,8.63 87.25,7.59 C88.94,6.96 94.22,5.03 95.06,7.9 Z" fill="#FF4638"/>
  <path d="M26.13,16.33 C26.78,17.68 27.51,18.99 28.32,20.25 C29.31,21.79 30.46,23.51 30.04,25.29 C29.55,27.33 27.29,28.31 25.3,28.99 C24.28,29.34 23.27,29.69 22.25,30.04 C21.71,30.23 21.14,30.42 20.57,30.39 C19.67,30.35 18.86,29.78 18.35,29.05 C17.83,28.32 17.57,27.44 17.37,26.57 C16.62,23.22 16.77,19.67 17.8,16.39 C18.4,14.51 19.34,12.53 21.47,12.38 C24.06,12.2 25.16,14.31 26.13,16.33 Z" fill="#FF4638"/>
</svg>
